X:1
T: The Earl of Seaforth's Reel
C:
R:Reel
Q: 232
K:D
M:4/4
L:1/8
|:c|d2 Ad FD DF|EB, ED CA, A,A|FD FA dG Bd|ce Ac d2 dc|
d2 Ad FD DF|EB, ED CA, A,A|FD FA dG Bd|ce Ac d2 dg|
f2 dg ge eg|fd ed cA Ag|f2 df ge eg|fd ec d2 dg|
f2 dg ge eg|fd ed cA Ag|fe df gf eg|fa ef d2 d:|
